flaticon/household/bed-1.svg

<svg xmlns="http://www.w3.org/2000/svg" width="32" height="32" viewBox="0 0 24 24">
    <path d="M 24 13.871094 C 24 13.839844 23.992188 13.8125 23.992188 13.78125 C 24 13.722656 24 13.660156 23.988281 13.601562 L 22.871094 4.550781 L 22.859375 4.492188 C 22.542969 3.378906 21.550781 2.601562 20.441406 2.601562 L 3.558594 2.601562 C 2.449219 2.601562 1.457031 3.378906 1.140625 4.492188 L 0.0117188 13.601562 C 0 13.660156 0 13.722656 0.0078125 13.78125 C 0.0078125 13.8125 0 13.839844 0 13.871094 L 0 16.128906 C 0 16.464844 0.136719 16.773438 0.351562 17 C 0.136719 17.226562 0 17.535156 0 17.871094 L 0 18.925781 C 0 19.460938 0.332031 19.917969 0.800781 20.105469 L 0.800781 21.398438 L 4.398438 21.398438 L 4.398438 20.199219 L 19.601562 20.199219 L 19.601562 21.398438 L 23.199219 21.398438 L 23.199219 20.105469 C 23.667969 19.917969 24 19.460938 24 18.925781 L 24 17.871094 C 24 17.535156 23.863281 17.226562 23.648438 17 C 23.863281 16.773438 24 16.464844 24 16.128906 Z M 3.910156 9.183594 L 5.855469 7.242188 C 6.175781 6.921875 6.695312 6.921875 7.015625 7.242188 L 8.960938 9.183594 C 9.238281 9.460938 9.273438 9.878906 9.070312 10.199219 L 3.800781 10.199219 C 3.597656 9.878906 3.636719 9.460938 3.910156 9.183594 Z M 3.601562 11 L 20.398438 11 C 21.367188 11 22.175781 11.6875 22.359375 12.601562 L 1.640625 12.601562 C 1.824219 11.6875 2.632812 11 3.601562 11 Z M 14.640625 9.183594 L 16.582031 7.242188 C 16.902344 6.921875 17.425781 6.921875 17.746094 7.242188 L 19.6875 9.183594 C 19.964844 9.460938 20.003906 9.878906 19.800781 10.199219 L 14.527344 10.199219 C 14.324219 9.878906 14.363281 9.460938 14.640625 9.183594 Z M 0.800781 16.128906 L 0.800781 13.871094 C 0.800781 13.835938 0.8125 13.804688 0.820312 13.769531 C 0.828125 13.730469 0.839844 13.691406 0.859375 13.65625 C 0.867188 13.640625 0.878906 13.628906 0.886719 13.613281 C 0.910156 13.582031 0.933594 13.550781 0.960938 13.523438 C 0.976562 13.507812 1 13.496094 1.019531 13.484375 C 1.046875 13.464844 1.070312 13.445312 1.101562 13.433594 C 1.15625 13.414062 1.210938 13.398438 1.273438 13.398438 L 22.726562 13.398438 C 22.789062 13.398438 22.84375 13.414062 22.898438 13.433594 C 22.925781 13.445312 22.949219 13.464844 22.972656 13.480469 C 22.871094 13.550781 22.800781 13.664062 22.800781 13.800781 C 22.800781 14.019531 22.980469 14.199219 23.199219 14.199219 L 23.199219 15.800781 C 22.980469 15.800781 22.800781 15.980469 22.800781 16.199219 C 22.800781 16.335938 22.871094 16.449219 22.972656 16.519531 C 22.902344 16.566406 22.820312 16.601562 22.726562 16.601562 L 1.273438 16.601562 C 1.011719 16.601562 0.800781 16.386719 0.800781 16.128906 Z M 1.917969 4.679688 C 2.140625 3.9375 2.828125 3.398438 3.558594 3.398438 L 20.441406 3.398438 C 21.171875 3.398438 21.859375 3.9375 22.082031 4.679688 L 22.972656 11.894531 C 22.574219 10.976562 21.699219 10.308594 20.660156 10.214844 C 20.820312 9.664062 20.6875 9.050781 20.253906 8.617188 L 18.3125 6.675781 C 17.679688 6.042969 16.652344 6.042969 16.019531 6.675781 L 14.074219 8.617188 C 13.644531 9.046875 13.511719 9.652344 13.667969 10.199219 L 9.933594 10.199219 C 10.089844 9.652344 9.957031 9.046875 9.527344 8.617188 L 7.582031 6.675781 C 6.949219 6.042969 5.921875 6.042969 5.289062 6.675781 L 3.347656 8.617188 C 2.894531 9.070312 2.769531 9.710938 2.960938 10.277344 C 2.089844 10.480469 1.375 11.089844 1.027344 11.894531 Z M 3.601562 20.601562 L 1.601562 20.601562 L 1.601562 20.199219 L 3.601562 20.199219 Z M 22.398438 20.601562 L 20.398438 20.601562 L 20.398438 20.199219 L 22.398438 20.199219 Z M 23.199219 18.925781 C 23.199219 19.1875 22.988281 19.398438 22.726562 19.398438 L 1.273438 19.398438 C 1.011719 19.398438 0.800781 19.1875 0.800781 18.925781 L 0.800781 17.871094 C 0.800781 17.613281 1.011719 17.398438 1.273438 17.398438 L 22.726562 17.398438 C 22.988281 17.398438 23.199219 17.613281 23.199219 17.871094 Z M 23.199219 18.925781"/>
    <path d="M3.199219 15C3.199219 15.222656 3.019531 15.398438 2.800781 15.398438 2.578125 15.398438 2.398438 15.222656 2.398438 15 2.398438 14.777344 2.578125 14.601562 2.800781 14.601562 3.019531 14.601562 3.199219 14.777344 3.199219 15zM2 13.800781C2 14.019531 1.820312 14.199219 1.601562 14.199219 1.378906 14.199219 1.199219 14.019531 1.199219 13.800781 1.199219 13.578125 1.378906 13.398438 1.601562 13.398438 1.820312 13.398438 2 13.578125 2 13.800781zM4.398438 13.800781C4.398438 14.019531 4.222656 14.199219 4 14.199219 3.777344 14.199219 3.601562 14.019531 3.601562 13.800781 3.601562 13.578125 3.777344 13.398438 4 13.398438 4.222656 13.398438 4.398438 13.578125 4.398438 13.800781zM2 16.199219C2 16.421875 1.820312 16.601562 1.601562 16.601562 1.378906 16.601562 1.199219 16.421875 1.199219 16.199219 1.199219 15.980469 1.378906 15.800781 1.601562 15.800781 1.820312 15.800781 2 15.980469 2 16.199219zM4.398438 16.199219C4.398438 16.421875 4.222656 16.601562 4 16.601562 3.777344 16.601562 3.601562 16.421875 3.601562 16.199219 3.601562 15.980469 3.777344 15.800781 4 15.800781 4.222656 15.800781 4.398438 15.980469 4.398438 16.199219zM5.601562 15C5.601562 15.222656 5.421875 15.398438 5.199219 15.398438 4.980469 15.398438 4.800781 15.222656 4.800781 15 4.800781 14.777344 4.980469 14.601562 5.199219 14.601562 5.421875 14.601562 5.601562 14.777344 5.601562 15zM8 15C8 15.222656 7.820312 15.398438 7.601562 15.398438 7.378906 15.398438 7.199219 15.222656 7.199219 15 7.199219 14.777344 7.378906 14.601562 7.601562 14.601562 7.820312 14.601562 8 14.777344 8 15zM6.800781 13.800781C6.800781 14.019531 6.621094 14.199219 6.398438 14.199219 6.179688 14.199219 6 14.019531 6 13.800781 6 13.578125 6.179688 13.398438 6.398438 13.398438 6.621094 13.398438 6.800781 13.578125 6.800781 13.800781zM9.199219 13.800781C9.199219 14.019531 9.019531 14.199219 8.800781 14.199219 8.578125 14.199219 8.398438 14.019531 8.398438 13.800781 8.398438 13.578125 8.578125 13.398438 8.800781 13.398438 9.019531 13.398438 9.199219 13.578125 9.199219 13.800781zM6.800781 16.199219C6.800781 16.421875 6.621094 16.601562 6.398438 16.601562 6.179688 16.601562 6 16.421875 6 16.199219 6 15.980469 6.179688 15.800781 6.398438 15.800781 6.621094 15.800781 6.800781 15.980469 6.800781 16.199219zM9.199219 16.199219C9.199219 16.421875 9.019531 16.601562 8.800781 16.601562 8.578125 16.601562 8.398438 16.421875 8.398438 16.199219 8.398438 15.980469 8.578125 15.800781 8.800781 15.800781 9.019531 15.800781 9.199219 15.980469 9.199219 16.199219zM10.398438 15C10.398438 15.222656 10.222656 15.398438 10 15.398438 9.777344 15.398438 9.601562 15.222656 9.601562 15 9.601562 14.777344 9.777344 14.601562 10 14.601562 10.222656 14.601562 10.398438 14.777344 10.398438 15zM12.800781 15C12.800781 15.222656 12.621094 15.398438 12.398438 15.398438 12.179688 15.398438 12 15.222656 12 15 12 14.777344 12.179688 14.601562 12.398438 14.601562 12.621094 14.601562 12.800781 14.777344 12.800781 15zM11.601562 13.800781C11.601562 14.019531 11.421875 14.199219 11.199219 14.199219 10.980469 14.199219 10.800781 14.019531 10.800781 13.800781 10.800781 13.578125 10.980469 13.398438 11.199219 13.398438 11.421875 13.398438 11.601562 13.578125 11.601562 13.800781zM14 13.800781C14 14.019531 13.820312 14.199219 13.601562 14.199219 13.378906 14.199219 13.199219 14.019531 13.199219 13.800781 13.199219 13.578125 13.378906 13.398438 13.601562 13.398438 13.820312 13.398438 14 13.578125 14 13.800781zM11.601562 16.199219C11.601562 16.421875 11.421875 16.601562 11.199219 16.601562 10.980469 16.601562 10.800781 16.421875 10.800781 16.199219 10.800781 15.980469 10.980469 15.800781 11.199219 15.800781 11.421875 15.800781 11.601562 15.980469 11.601562 16.199219zM14 16.199219C14 16.421875 13.820312 16.601562 13.601562 16.601562 13.378906 16.601562 13.199219 16.421875 13.199219 16.199219 13.199219 15.980469 13.378906 15.800781 13.601562 15.800781 13.820312 15.800781 14 15.980469 14 16.199219zM15.199219 15C15.199219 15.222656 15.019531 15.398438 14.800781 15.398438 14.578125 15.398438 14.398438 15.222656 14.398438 15 14.398438 14.777344 14.578125 14.601562 14.800781 14.601562 15.019531 14.601562 15.199219 14.777344 15.199219 15zM17.601562 15C17.601562 15.222656 17.421875 15.398438 17.199219 15.398438 16.980469 15.398438 16.800781 15.222656 16.800781 15 16.800781 14.777344 16.980469 14.601562 17.199219 14.601562 17.421875 14.601562 17.601562 14.777344 17.601562 15zM16.398438 13.800781C16.398438 14.019531 16.222656 14.199219 16 14.199219 15.777344 14.199219 15.601562 14.019531 15.601562 13.800781 15.601562 13.578125 15.777344 13.398438 16 13.398438 16.222656 13.398438 16.398438 13.578125 16.398438 13.800781zM18.800781 13.800781C18.800781 14.019531 18.621094 14.199219 18.398438 14.199219 18.179688 14.199219 18 14.019531 18 13.800781 18 13.578125 18.179688 13.398438 18.398438 13.398438 18.621094 13.398438 18.800781 13.578125 18.800781 13.800781zM16.398438 16.199219C16.398438 16.421875 16.222656 16.601562 16 16.601562 15.777344 16.601562 15.601562 16.421875 15.601562 16.199219 15.601562 15.980469 15.777344 15.800781 16 15.800781 16.222656 15.800781 16.398438 15.980469 16.398438 16.199219zM18.800781 16.199219C18.800781 16.421875 18.621094 16.601562 18.398438 16.601562 18.179688 16.601562 18 16.421875 18 16.199219 18 15.980469 18.179688 15.800781 18.398438 15.800781 18.621094 15.800781 18.800781 15.980469 18.800781 16.199219zM20 15C20 15.222656 19.820312 15.398438 19.601562 15.398438 19.378906 15.398438 19.199219 15.222656 19.199219 15 19.199219 14.777344 19.378906 14.601562 19.601562 14.601562 19.820312 14.601562 20 14.777344 20 15zM22.398438 15C22.398438 15.222656 22.222656 15.398438 22 15.398438 21.777344 15.398438 21.601562 15.222656 21.601562 15 21.601562 14.777344 21.777344 14.601562 22 14.601562 22.222656 14.601562 22.398438 14.777344 22.398438 15zM21.199219 13.800781C21.199219 14.019531 21.019531 14.199219 20.800781 14.199219 20.578125 14.199219 20.398438 14.019531 20.398438 13.800781 20.398438 13.578125 20.578125 13.398438 20.800781 13.398438 21.019531 13.398438 21.199219 13.578125 21.199219 13.800781zM21.199219 16.199219C21.199219 16.421875 21.019531 16.601562 20.800781 16.601562 20.578125 16.601562 20.398438 16.421875 20.398438 16.199219 20.398438 15.980469 20.578125 15.800781 20.800781 15.800781 21.019531 15.800781 21.199219 15.980469 21.199219 16.199219zM21.199219 16.199219"/>
</svg>

<svg xmlns="http://www.w3.org/2000/svg" width="32" height="32" viewBox="0 0 24 24">
    <path d="M24 13.871c0-.031-.008-.059-.008-.09a.555.555 0 0 0-.004-.18l-1.117-9.05-.012-.059c-.316-1.113-1.308-1.89-2.418-1.89H3.56c-1.11 0-2.102.777-2.418 1.89l-1.13 9.11a.555.555 0 0 0-.003.18c0 .03-.008.058-.008.09v2.257c0 .336.137.644.352.871a1.27 1.27 0 0 0-.352.871v1.055c0 .535.332.992.8 1.18v1.292h3.598V20.2h15.204v1.2h3.597v-1.294c.469-.187.801-.644.801-1.18v-1.054a1.27 1.27 0 0 0-.352-.871 1.27 1.27 0 0 0 .352-.871zM3.91 9.184l1.945-1.942a.82.82 0 0 1 1.16 0l1.946 1.942a.812.812 0 0 1 .11 1.015H3.8a.817.817 0 0 1 .11-1.015zM3.602 11h16.796a2 2 0 0 1 1.961 1.602H1.641A2 2 0 0 1 3.6 11zM14.64 9.184l1.941-1.942a.825.825 0 0 1 1.164 0l1.942 1.942a.812.812 0 0 1 .113 1.015h-5.274a.812.812 0 0 1 .114-1.015zM.8 16.129V13.87c0-.035.011-.066.02-.101a.39.39 0 0 1 .038-.114c.008-.015.02-.027.028-.043a.824.824 0 0 1 .074-.09c.016-.015.039-.027.059-.039.027-.02.05-.039.082-.05a.5.5 0 0 1 .171-.036h21.454a.5.5 0 0 1 .171.036c.028.011.051.03.075.046a.387.387 0 0 0-.172.32.4.4 0 0 0 .398.4v1.6a.4.4 0 0 0-.398.4c0 .136.07.25.172.32a.442.442 0 0 1-.246.082H1.273a.474.474 0 0 1-.472-.473zm1.117-11.45c.223-.742.91-1.28 1.64-1.28h16.883c.73 0 1.418.538 1.641 1.28l.89 7.216a2.805 2.805 0 0 0-2.312-1.68c.16-.55.027-1.164-.406-1.598l-1.942-1.941a1.622 1.622 0 0 0-2.292 0l-1.946 1.941a1.602 1.602 0 0 0-.406 1.582H9.934a1.602 1.602 0 0 0-.407-1.582L7.582 6.676a1.622 1.622 0 0 0-2.293 0L3.348 8.617a1.604 1.604 0 0 0-.387 1.66 2.806 2.806 0 0 0-1.934 1.618zm1.684 15.923h-2v-.403h2zm18.796 0h-2v-.403h2zm.801-1.676c0 .262-.21.472-.472.472H1.273a.472.472 0 0 1-.472-.472V17.87c0-.258.21-.473.472-.473h21.454c.261 0 .472.215.472.473zm0 0"/>
    <path d="M3.2 15c0 .223-.18.398-.4.398a.398.398 0 1 1 0-.796c.22 0 .4.175.4.398zm0 0M2 13.8a.4.4 0 1 1-.8-.003.4.4 0 0 1 .8.004zm0 0M4.398 13.8a.398.398 0 1 1-.796 0 .398.398 0 1 1 .796 0zm0 0M2 16.2a.401.401 0 1 1-.802.002.401.401 0 0 1 .802-.003zm0 0M4.398 16.2a.398.398 0 1 1-.796 0 .398.398 0 1 1 .796 0zm0 0M5.602 15c0 .223-.18.398-.403.398a.398.398 0 1 1 0-.796c.223 0 .403.175.403.398zm0 0M8 15c0 .223-.18.398-.398.398a.398.398 0 1 1 0-.796c.218 0 .398.175.398.398zm0 0M6.8 13.8A.401.401 0 1 1 6 13.797a.401.401 0 0 1 .802.005zm0 0M9.2 13.8a.4.4 0 1 1-.801-.003.4.4 0 0 1 .8.004zm0 0M6.8 16.2a.401.401 0 1 1 0 0zm0 0M9.2 16.2a.401.401 0 1 1-.803.002.401.401 0 0 1 .802-.003zm0 0M10.398 15a.395.395 0 0 1-.398.398.395.395 0 0 1-.398-.398c0-.223.175-.398.398-.398.223 0 .398.175.398.398zm0 0M12.8 15c0 .223-.179.398-.402.398a.398.398 0 1 1 0-.796c.223 0 .403.175.403.398zm0 0M11.602 13.8a.401.401 0 1 1-.802-.004.401.401 0 0 1 .802.005zm0 0M14 13.8a.4.4 0 1 1-.8-.003.4.4 0 0 1 .8.004zm0 0M11.602 16.2a.401.401 0 1 1 0 0zm0 0M14 16.2a.401.401 0 1 1-.802.002.401.401 0 0 1 .802-.003zm0 0M15.2 15c0 .223-.18.398-.4.398a.398.398 0 1 1 0-.796c.22 0 .4.175.4.398zm0 0M17.602 15c0 .223-.18.398-.403.398a.398.398 0 1 1 0-.796c.223 0 .403.175.403.398zm0 0M16.398 13.8a.398.398 0 1 1-.796 0 .398.398 0 1 1 .796 0zm0 0M18.8 13.8a.401.401 0 1 1-.801-.004.401.401 0 0 1 .802.005zm0 0M16.398 16.2a.398.398 0 1 1-.796 0 .398.398 0 1 1 .796 0zm0 0M18.8 16.2a.401.401 0 1 1 0 0zm0 0M20 15c0 .223-.18.398-.398.398a.398.398 0 1 1 0-.796c.218 0 .398.175.398.398zm0 0M22.398 15a.395.395 0 0 1-.398.398.395.395 0 0 1-.398-.398c0-.223.175-.398.398-.398.223 0 .398.175.398.398zm0 0M21.2 13.8a.4.4 0 1 1-.801-.003.4.4 0 0 1 .8.004zm0 0M21.2 16.2a.401.401 0 1 1-.803.002.401.401 0 0 1 .802-.003zm0 0"/>
</svg>
